X: 1
T: Down the Brae
R: march
Z: 2014 John Chambers <jc:trillian.mit.edu>
N: In a set for Cranky Ingenuity (Contra)
S: http://www.kangaroovalleyfolkfestival.com.au/USERIMAGES/Bush%20Dance%2014-05-03.pdf
M: 4/4
L: 1/8
K: Em
B,2 |:\
"Em"E>D EF "C"G>F GA | "Em"B2e2 "Bm"dB2A | "C"G>F GB "D"AFDE |\
[1 "Bm"F2E2 DB,2B, :|[2 "Em"F2E2 E2 ||
ed |\
"Em"B2e2 e2de | "Bm"f2e2 dB3 | "D"A>B AB d3e | dBAB "Bm"d2ed |
"Em"B2e2 e2de | "Bm"f2e2 dB2A | "C"G>F GB "D"AFDE | "Em"F2E2 E2 |]
